X:35
T:Vals efter Kristian Oskarsson
R:vals
S:efter [[!Kristian Oskarsson]]
Z:2007-09-11
O:Jämtland
M:3/4
L:1/8
K:A
AB|:"A"c2 A2 B2|c3 d cB|"D"A2 f3 e|"A"e4 ef|"E"e2 d2 c2|B3 AGA|B2 cB GB|"A"A2 a3 b|
a2 A2 B2|c3 d cB|"D"A2 f3 e|"A"e4 ef|"E"e2 d2 c2|B3 AGA|B2 cB GB|1 "A"A3 A AB:|2 "A"A3 A ce|
|:"D"a2 ag gf|"A"fe ^de fe|"E"=dc BA GB|"A"BA Ac ce|
"D"a2 ag gf|"A"fe ^de fe|"E"=dc BA GB|1 "A"A3 A ce:|2 "A"A4|]
(:musicend:)

(:Title Jäspôdspolska från Boda:)
(:music:)
